/* XPM */
static char *Pacade2[] = {
/* columns rows colors chars-per-pixel */
"52 67 2 1 ",
"  c #200063",
". c white",
/* pixels */
"                                                    ",
"                                                    ",
"                                                    ",
"                                                    ",
"                                                    ",
"                                                    ",
"                                                    ",
"                                                    ",
"                                                    ",
"                                                    ",
"                                                    ",
"                                                    ",
"            ............................            ",
"            ............................            ",
"            ............................            ",
"            ............................            ",
"            ............................            ",
"            ............................            ",
"            ............................            ",
"            ............................            ",
"            ............................            ",
"            ............................            ",
"            ............................            ",
"            ............................            ",
"            ............................            ",
"            ............................            ",
"            ............................            ",
"            ............................            ",
"            ............................            ",
"            ............................            ",
"            ............................            ",
"            ............................            ",
"            ............................            ",
"            ............................            ",
"            ............................            ",
"            ............................            ",
"            ............................            ",
"            ............................            ",
"            ............................            ",
"            ............................            ",
"            ............................            ",
"            ............................            ",
"            ............................            ",
"            ............................            ",
"            ............................            ",
"            ............................            ",
"            ............................            ",
"            ............................            ",
"                                                    ",
"                                                    ",
"                                                    ",
"                                                    ",
"                                                    ",
"                                                    ",
"                                                    ",
"                                                    ",
"                                                    ",
"                                                    ",
"                                                    ",
"                                                    ",
"                                                    ",
"                                                    ",
"                                                    ",
"                                                    ",
"                                                    ",
"                                                    ",
"                                                    "
};
