/* XPM */
static char *Pacade[] = {
/* columns rows colors chars-per-pixel */
"192 256 10 1 ",
"  c None",
". c black",
"X c gray2",
"o c gray10",
"O c #343434",
"+ c #353535",
"@ c red",
"# c #FDFF00",
"$ c #0019FF",
"% c #FEFEFE",
/* pixels */
"................................................................................................................................................................................................",
".%%%%%%%%%%%%%%%%%%%%%%%%%%%%%%%%%%%%%%%%%%%%%%%%%%%%%%%%%%%%%%%%%%%%%%%%%%%%%%%%%%%%%%%%%%%%%%%%%%%%%%%%%%%%%%%%%%%%%%%%%%%%%%%%%%%%%%%%%%%%%%%%%%%%%%%%%%%%%%%%%%%%%%%%%%%%%%%%%%%%%%%%%%%%%%.",
".%%%%%%%%%%%%%%%%%%%%%%%%%%%%%%%%%%%%%%%%%%%%%%%%%%%%%%%%%%%%%%%%%%%%%%%%%%%%%%%%%%%%%%%%%%%%%%%%%%%%%%%%%%%%%%%%%%%%%%%%%%%%%%%%%%%%%%%%%%%%%%%%%%%%%%%%%%%%%%%%%%%%%%%%%%%%%%%%%%%%%%%%%%%%%%.",
".%%%%%%%%%%%%%%%%%%%%%%%%%%%%%%%%%%%%%%%%%%%%%%%%%%%%%%%%%%%%%%%%%%%%%%%%%%%%%%%%%%%%%%%%%%%%%%%%%%%%%%%%%%%%%%%%%%%%%%%%%%%%%%%%%%%%%%%%%%%%%%%%%%%%%%%%%%%%%%%%%%%%%%%%%%%%%%%%%%%%%%%%%%%%%%.",
".%%%%%%%%%%%%%%%%%%%%%%%%%%%%%%%%%%%%%%%%%%%%%%%%%%%%%%%%%%%%%%%%%%%%%%%%%%%%%%%%%%%%%%%%%%%%%%%%%%%%%%%%%%%%%%%%%%%%%%%%%%%%%%%%%%%%%%%%%%%%%%%%%%%%%%%%%%%%%%%%%%%%%%%%%%%%%%%%%%%%%%%%%%%%%%.",
".%%%%%%%%%%%%%%%%%%%%%%%%%%%%%%%%%%%%%%%%%%%%%%%%%%%%%%%%%%%%%%%%%%%%%%%%%%%%%%%%%%%%%%%%%%%%%%%%%%%%%%%%%%%%%%%%%%%%%%%%%%%%%%%%%%%%%%%%%%%%%%%%%%%%%%%%%%%%%%%%%%%%%%%%%%%%%%%%%%%%%%%%%%%%%%.",
".%%%%%%%%%%%%%%%%%%%%%%%%%%%%%%%%%%%%%%%%%%%%%%%%%%%%%%%%%%%%%%%%%%%%%%%%%%%%%%%%%%%%%%%%%%%%%%%%%%%%%%%%%%%%%%%%%%%%%%%%%%%%%%%%%%%%%%%%%%%%%%%%%%%%%%%%%%%%%%%%%%%%%%%%%%%%%%%%%%%%%%%%%%%%%%.",
".%%%%%%%%%%%%%%%%%%%%%%%%%%%%%%%%%%%%%%%%%%%%%%%%%%%%%%%%%%%%%%%%%%%%%%%%%%%%%%%%%%%%%%%%%%%%%%%%%%%%%%%%%%%%%%%%%%%%%%%%%%%%%%%%%%%%%%%%%%%%%%%%%%%%%%%%%%%%%%%%%%%%%%%%%%%%%%%%%%%%%%%%%%%%%%.",
".%%%%%%%%%%%%%%%%%%%%%%%%%%%%%######%%%%%%%%%%%%%%%%%%%%%%%%%%%%%%%%%%%%%%%%%%%%%%%%%%%%%%%%%%%%%%%%%%%%%%%%%%%%%%%%%%%%%%%%%%%%%%%%%%%%%%%%%%%%%%%%%%%%%%%%%%%%%%%%%%%%%%%%%%%%%%%%%%%%%%%%%%%.",
".%%%%%%%%%%%%%%%%%%%%%%%%%%%%%#%%%%##%%%%%%%%%%%%%%%%%%%%%%%%%%%%%%%%%%%%%%%%%%%%%%%%%%%%%%%%%%%%%%%%%%%%%%%%%%%%%%%%%%##%%%%%%%%%%%%%%%%%%%%%%%%%%%%%%%%%%%%%%%%%%%%%%%%%%%%%%%%%%%%%%%%%%%%%%.",
".%%%%%%%%%%%%%%%%%%%%%%%%%%%%#%%%%%%##%%%%%%%%%%%%%%%%%%%%%%%%%%%%%%%%%%%%%%%%%%%%%%%%%%%%%%%%%%%%%%%%%%%%%%%%%%%%%%%%###%%%%%%%%%%%%%%%%%%%%%%%%%%%%%%%%%%%%%%%%%%%%%%%%%%%%%%%%%%%%%%%%%%%%%%.",
".%%%%%%%%%%%%%%%%%%%%%%%%%%%#%%%%%%%%##%%%%%%%%%%%%%%%%%%%%%%%%%%%%%%%%%%%%%%%%%%%%%%%%%%%%%%%%%%%%%%%%%%%%%%%%%%%%%%%#%#%%%%%%%%%%%%%%%%%%%%%%%%%%%%%%%%%%%%%%%%%%%%%%%%%%%%%%%%%%%%%%%%%%%%%%.",
".%%%%%%%%%%%%%%%%%%%%%%%%%%##%%%%%%%%%#%%%%%%%%%%%%%%%%%%%%%%%#%%%%%%%%%%%%%%%%%%%%%%%%%%%%%%%%%%%%%%%%%%%%%%%%%%%%%%#%%#%%%%%%%%%%%%%%%%%%%%%%%%%%%%%%%%%%%%%%%%%%%%%%%%%%%%%%%%%%%%%%%%%%%%%%.",
".%%%%%%%%%%%%%%%%%%%%%%%%%%#%%%%%%%%%%%#%%%%%%%%%%%%%%%%%%%%%#%#%%%%%%%%%%%%%%%%%%%%%%%%%%%%%%%%%%%%%%%%%%%%%%%%%%%%#%%%#%%%%%%%%%%%%%%%%%%###%%%%%%%%%%%%%%%%%%%%%%%%%%%%%%%%%%%%%%%%%%%%%%%%%.",
".%%%%%%%%%%%%%%%%%%%%%%%%%%#%%%%%%%%%%%#%%%%%%%%%%%%%%%%%%%%#%%#%%%%%%%%%%%%%%%##%%%%%%%%%%%%%%%%%%%%%%%%%%%%%%%%%%%#%%%#%%%%%%#%%%%%%%%%%%#%#%%%%%%%%%%%%%%%%%%%%%%%%%%%%%%%%%%%%%%%%%%%%%%%%%.",
".%%%%%%%%%%%%%%%%%%%%%%%%%##%%%%%%%%%%%#%%%%%%%%%%%%%%%%%%%%#%%#%%%%%%%%%%%%%##%%%%%%%%%%%%%%%%%%%%%%%%%%%%%%%%%%%%%#%%#%%%%%%##%%%%%%%%%%#%%#%%%%%%%%%%%%%%%%%%%%%%%%%%%%%%%%%%%%%%%%%%%%%%%%%.",
".%%%%%%%%%%%%%%%%%%%%%%%%%#%%%%%%%%%%%%##%%%%%%%%%%%%%%%%%%#%%%#%%%%%%%%%%%%#%%%%%%%%%%%%%%%%%%%%%%%%%%%%%%%%%%%%%%#%%%#%%%%%%##%%%%%%%%%%#%%#%%%%%%%%%%%%%%%%%%%%%%%%%%%#%%%%%%%%%%%%%%%%#%%%%.",
".%%%%%%%%%%%%%%%%%%%%%%%%%#%%%%%%%%%%%%%#%%%%%%%%%%%%%%%%%%#%%%#%%%%%%%%%%%#%%%%%%%%%%%%%%%%%%%%%%%%%%%%%%%%%%%%%%%#%%%#%%%%%%##%%%%%%%%%#%%%#%%%%%%%%%%%%%%%%%%%%%%%%%%###%%%%%%%%%%%%%%##%%%%.",
".%%%%%%%%%%%%%%%%%%%%%%%%%#%%%%%%%%%%%%%#%%%%%%%%%%%%%%%%%#%%%%#%%%%%%%%%%%#%%%%%%%%%%%%%%%%%%%%%%%%%%%%%%%%%%%%%%#%%%%#%%%%%##%%%%%%%%%%#%%%#%%%%%%%%%%%%%%%%%%%%%%%%%#%%#%%%%%%%%%%%%%##%%%%%.",
".%%%%%%%%%%%%%%%%%%%%%%%%%#%%%%%%%%%%%%%#%%%%%%%%%%%%%%%%%#%%%%#%%%%%%%%%%#%%%%%%%%%%%%%%%%%%%%%%%%%%%%%%%%%%%%%%%#%%%%#%%%%%##%%%%%%%%%%#%%%#%%%%%%%%%%%%%%%%%%%%%%%%#%%%#%%%%%%%%%%%%##%%%%%%.",
".%%%%%%%%%%%%%%%%%%%%%%%%%#%%%%%%%%%%%%%#%%%%%%%%%%%%%%%%#%%%%%#%%%%%%%%%#%%%%%%%%%%%%%%%%%%%%%%%%%%%%%%%%%%%%%%%#%%%%%#%%%%%##%%%%%%%%%%#%%%#%%%%%%%%%%%%%%%%%%%%%%%#%%%%#%%%%%%%%%%%%#%%%%%%%.",
".%%%%%%%%%%%%%%%%%%%%%%%%%#%%%%%%%%%%%%%#%%%%%%%%%%%%%%%%#%%%%#%%%%%%%%%#%%%%%%%%%%%%%%%%%%%%%%%%%%%%%%%%%%%%%%%%#%%%%#%%%%%#%#%%%%%%%%%%#%%%#%%%%%%%%%%%%%%%%%%%%%%%#%%%%#%%%%%%%%%%##%%%%%%%%.",
".%%%%%%%%%%%%%%%%%%%%%%%%%#%%%%%%%%%%%%%#%%%%%%%%%%%%%%%%#%%%%#%%%%%%%%%#%%%%%%%%%%%%%%%%%%%%%%%%%%%%%%%%%%%%%%%%#%%%%#%%%%%#%#%%%%%%%%%#%%%%#%%%%%%%%%%%%%%%%%%%%%##%%%%#%%%%%%%%%%%#%%%%%%%%%.",
".%%%%%%%%%%%%%%%%%%%%%%%%%#%%%%%%%%%%%%##%%%%%%%%%%%%%%%#%%%%%#%%%%%%%%#%%%%%%%%%%%%%%%%%%%%%%%%%%%%%%%%%%%%%%%%#%%%%%#%%%%%##%%%%%%##%%#%%%%#%%%%%%%%%%%%%%%%%%%%%#%%%%%#%%%%%%%%%%#%%%%%%%%%%.",
".%%%%%%%%%%%%%%%%%%%%%%%%%#%%%#%%%%%%%##%%%%%%%%%%%%%%%%#%%%%%#%%%%%%%%#%%%%%%%%%%%%%%%%%%%%%%%%%%%%%%%%%%%%%%%%#%%%%%#%%%%%##%%%%%%%%###%%%#%%%%%%%%%%%%%%%%%%%%%#%%%%%%#%%%%%%%%%%#%%%%%%%%%%.",
".%%%%%%%%%%%%%%%%%%%%%%%%%#%%%%###%%%##%%%%%%%%%%%%%%%%%#%%%%%#%%%%%%%#%%%%%%%%%%%%%%%%%%%%%%%%%%%%%%%%%%%%%%%%%#%%%%%#%%%%#%#%%%%%%%%%####%#%%%%%%%%%%%%%%%%%%%%%#%%%%%%#%%%%%%%%%#%%%%%%%%%%%.",
".%%%%%%%%%%%%%%%%%%%%%%%%%#%%%%%%####%%%%%%%%%%%%%%%%%%#%%%%%%#%%%%%%%#%%%%%%%%%%%%%%%%#########%%%%%%%%%%%%%%%#%%%%%%#%%%%#%#%%%%%%%%%%#%%######%%%%%%%%%%%%%%%%#%%%%%%%#%%%%%%%%#%%%%%%%%%%%%.",
".%%%%%%%%%%%%%%%%%%%%%%%%%#%%%%%%%%%%%%%%%%%%%%%%%#%%%%#%%%%%%#%%%%%%%#%%%%%%%%%%%%%%%%%%%%%%%%%%%%%%%%%%%%%%%%#%%%%%%#%%%#%%#%%%%%%%%%%#%%%#%%%%%%%%%%%%%%%%%%%%#%%%%%%%#%%%%%%%%#%%%%%%%%%%%%.",
".%%%%%%%%%%%%%%%%%%%%%%%%%#%%%%%%%%%%%%%%%%%%%%%%%##%%%#%%%%%%#%%%%%%%#%%%%%%%%%%%%%%%%%%%%%%%%%%%%%%%%%%%%%%%#%%%%%%%#%%%#%%#%%%%%%%%%%#%%%#%%%%%%%%%%%%%%%%%%%#%%%%%%%#%%%%%%%%#%%%%%%%%%%%%%.",
".%%%%%%%%%%%%%%%%%%%%%%%%%#%%%%%%%%%%%%%%%%%%%%%%%%##%#%%%%%%%#%%#%%%%#%%%%%%%%%%%%%%%%%%%%%%%%%%%%%%%%%%%%%%%#%%%%%%%#%%%#%%#%%%%%%%%%#%%%%#%%%%%%%%%%%%%%%%%%%#%%%%%%%#%%%%%%%%#%%%%%%%%%%%%%.",
".%%%%%%%%%%%%%%%%%%%%%%%%%#%%%%%%%%%%%%%%%%%%%%%%%%%%###%%%%%####%%%%%#%%%%%%%%%%%%%%%%%%%%%%%%%%%%%%%%%%%%%%%#%%%%%%#%%%%#%%#%%%%%%%%%#%%%%#%%%%%%%%%%%%%%%%%%%#%%%%%%%#%%%%%%%#%%%%%%%%%%%%%%.",
".%%%%%%%%%%%%%%%%%%%%%%%%%#%%%%%%%%%%%%%%%%%%%%%%%%%%#%%#####%#%%%%%%%#%%%%%%%%%%%%%%%%%%%%%%%%%%%%%%%%%%%%%%%#%%%%%%#%%%#%%%#%%%%%%%%%#%%%%#%%%%%%%%%%%%%%%%%%%#%%%%%%%#%%%%%%#%%%%%%%%%%%%%%%.",
".%%%%%%%%%%%%%%%%%%%%%%%%%#%%%%%%%%%%%%%%%%%%%%%%%%%%#%%%%%%%%#%%%%%%%#%%%%%%%%%%%%%%%%%%%%%%%%%%%%%%%%%%%%%%#%%%%%%%#%%%#%%%#%%%%%%%%%#%%%%#%%%%%%%%%%%%%%%%%%#%%%%%%%%#%%%%%#%%%%%%%%%%%%%%%%.",
".%%%%%%%%%%%%%%%%%%%%%%%%%%#%%%%%%%%%%%%%%%%%%%%%%%%#%%%%%%%%%#%%%%%%%%#%%%%%%%%%%%%%%%%%%%%%%%%%%%%%%%%%%%%%#%%%%%%%%#%#%%%%#%%%%%%%%%#%%%%%#%%%%%%%%%%%%%%%%%#%%%%%%%%#%%%%%#%%%%%%%%%%%%%%%%.",
".%%%%%%%%%%%%%%%%%%%%%%%%%%#%%%%%%%%%%%%%%%%%%%%%%%%#%%%%%%%%%#%%%%%%%%##%%%%%%%%%%%%%%%%%%%%%%%%%%%%%%%%%%%%#%%%%%%%%#%#%%%%#%%%%%%%%%#%%%%%#%%%%%%%%%%%%%%%%%#%%%%%%%%#%%%%#%%%%%%%%%%%%%%%%%.",
".%%%%%%%%%%%%%%%%%%%%%%%%%%#%%%%%%%%%%%%%%%%%%%%%%%%#%%%%%%%%%#%%%%%%%%%#%%%%%%%%%%%%%%%%%%%%%%%%%%%%%%%%%%%%#%%%%%%%%##%%%%%##%%%%%%%%#%%%%%#%%%%%%%%%%%%%%%%%#%%%%%%%%#%%%#%%%%%%%%%%%%%%%%%%.",
".%%%%%%%%%%%%%%%%%%%%%%%%%%#%%%%%%%%%%%%%%%%%%%%%%%%#%%%%%%%%%#%%#%%%%%%%###%%%%%%%%%%%%%%%%%%%%%%%%%%%%%%%%%#%%%%%%%%##%%%%%%%%%%%%%%%#%%%%%#%%%%%%%%%%%%%%%%%#%%%%%%%%#%%##%%%%%%%%%%%%%%%%%%.",
".%%%%%%%%%%%%%%%%%%%%%%%%%%#%%%%%%%%%%%%%%%%%%%%%%%#%%%%%%%%%%%#%%%%%%%%%%%%####%%%%%%%%%%%%%%%%%%%%%%%%%%%%%%%%%%%%%%%%%%%%%%%%%%%%%%%#%%%%%#%%%%%%%%%%%%%%%%%#%%%%%%%%####%%%%%%%%%%%%%%%%%%%.",
".%%%%%%%%%%%%%%%%%%%%%%%%%%##%%%%%%%%%%%%%%%%%%%%%%#%%%%%%%%%%%#%%%%%%%%%%%%%%%%%%%%%%%%%%%%%%%%%%%%%%%%%%%%%%%%%%%%%%%%%%%%%%%%%%%%%%%#%%%%%%%%%%%%%%%%%%%%%%%###%%%%%%%#%%%%%%%%%%%%%%%%%%%%%.",
".%%%%%%%%%%%%%%%%%%%%%%%%%%%#%%%%%%%%%%%%%%%%%%%%%#%%%%%%%%%%%%#%%%%%%%%%%%%%%%%%%%%%%%%%%%%%%%%%%%%%%%%%%%%%%%%%%%%%%%%%%%%%%%%%%%%%%%#%%%%%%%%%%%%%%%%%%%%%%%%%%%%%%%%%%%%%%%%%%%%%%%%%%%%%%%.",
".%%%%%%%%%%%%%%%%%%%%%%%%%%%%%%%%%%%%%%%%%%%%%%%%%#%%%%%%%%%%%%%%%%%%%%%%%%%%%%%%%%%%%%%%%%%%%%%%%%%%%%%%%%%%%%%%%%%%%%%%%%%%%%%%%%%%%%#%%%%%%%%%%%%%%%%%%%%%%%%%%%%%%%%%%%%%%%%%%%%%%%%%%%%%%%.",
".%%%%%%%%%%%%%%%%%%%%%%%%%%%%%%%%%%%%%%%%%%%%%%%%%#%%%%%%%%%%%%%%%%%%%%%%%%%%%%%%%%%%%%%%%%%%%%%%%%%%%%%%%%%%%%%%%%%%%%%%%%%%%%%%%%%%%%%%%%%%%%%%%%%%%%%%%%%%%%%%%%%%%%%%%%%%%%%%%%%%%%%%%%%%%%.",
".%%%%%%%%%%%%%%%%%%%%%%%%%%%%%%%%%%%%%%%%%%%%%%%%##%%%%%%%%%%%%%%%%%%%%%%%%%%%%%%%%%%%%%%%%%%%%%%%%%%%%%%%%%%%%%%%%%%%%%%%%%%%%%%%%%%%%%%%%%%%%%%%%%%%%%%%%%%%%%%%%%%%%%%%%%%%%%%%%%%%%%%%%%%%%.",
".%%%%%%%%%%%%%%%%%%%%%%%%%%%%%%%%%%%%%%%%%%%%%%%%##%%%%%%%%%%%%%%%%%%%%%%%%%%%%%%%%%%%%%%%%%%%%%%%%%%%%%%%%%%%%%%%%%%%%%%%%%%%%%%%%%%%%%%%%%%%%%%%%%%%%%%%%%%%%%%%%%%%%%%%%%%%%%%%%%%%%%%%%%%%%.",
".%%%%%%%%%%%%%%%%%%%%%%%%%%%%%%%%%%%%%%%%%%%%%%%%%%%%%%%%%%%%%%%%%%%%%%%%%%%%%%%%%%%%%%%%%%%%%%%%%%%%%%%%%%%%%%%%%%%%%%%%%%%%%%%%%%%%%%%%%%%%%%%%%%%%%%%%%%%%%%%%%%%%%%%%%%%%%%%%%%%%%%%%%%%%%%.",
".%%%%%%%%%%%%%%%%%%%%%%%%%%%%%%%%%%%%%%%%%%%%%%%%%%%%%%%%%%%%%%%%%%%%%%%%%%%%%%%%%%%%%%%%%%%%%%%%%%%%%%%%%%%%%%%%%%%%%%%%%%%%%%%%%%%%%%%%%%%%%%%%%%%%%%%%%%%%%%%%%%%%%%%%%%%%%%%%%%%%%%%%%%%%%%.",
".%%%%%%%%%%%%%%%%%%%%%%%%%%%%%%%%%%%%%%%%%%%%%%%%%%%%%%%%%%%%%%%%%%%%%%%%%%%%%%%%%%%%%%%%%%%%%%%%%%%%%%%%%%%%%%%%%%%%%%%%%%%%%%%%%%%%%%%%%%%%%%%%%%%%%%%%%%%%%%%%%%%%%%%%%%%%%%%%%%%%%%%%%%%%%%.",
"................................................................................................................................................................................................",
"................................................................................................................................................................................................",
"................OOOOOOOOOOOOOOOOOOOOOOOOOOOOOOOOOOOOOOOOOOOOOOOOOOOOOOOOOOOOOOOOOOOOOOOOOOOOOOOOOOOOOOOOOOOOOOOOOOOOOOOOOOOOOOOOOOOOOOOOOOOOOOOOOOOOOOOOOOOOOOOOOOOOOOOOOOOOOOOO................",
"................OOOOOOOOOOOOOOOOOOOOOOOOOOOOOOOOOOOOOOOOOOOOOOOOOOOOOOOOOOOOOOOOOOOOOOOOOOOOOOOOOOOOOOOOOOOOOOOOOOOOOOOOOOOOOOOOOOOOOOOOOOOOOOOOOOOOOOOOOOOOOOOOOOOOOOOOOOOOOOOO................",
"................OOOOOOOOOOOOOOOOOOOOOOOOOOOOOOOOOOOOOOOOOOOOOOOOOOOOOOOOOOOOOOOOOOOOOOOOOOOOOOOOOOOOOOOOOOOOOOOOOOOOOOOOOOOOOOOOOOOOOOOOOOOOOOOOOOOOOOOOOOOOOOOOOOOOOOOOOOOOOOOO................",
"................OOOOOOOOOOOOOOOOOOOOOOOOOOOOOOOOOOOOOOOOOOOOOOOOOOOOOOOOOOOOOOOOOOOOOOOOOOOOOOOOOOOOOOOOOOOOOOOOOOOOOOOOOOOOOOOOOOOOOOOOOOOOOOOOOOOOOOOOOOOOOOOOOOOOOOOOOOOOOOOO................",
"................OOOOOOOOOOOOOOOOOOOOOOOOOOOOOOOOOOOOOOOOOOOOOOOOOOOOOOOOOOOOOOOOOOOOOOOOOOOOOOOOOOOOOOOOOOOOOOOOOOOOOOOOOOOOOOOOOOOOOOOOOOOOOOOOOOOOOOOOOOOOOOOOOOOOOOOOOOOOOOOO................",
"................OOOOOOOOOOOOOOOOOOOOOOOOOOOOOOOOOOOOOOOOOOOOOOOOOOOOOOOOOOOOOOOOOOOOOOOOOOOOOOOOOOOOOOOOOOOOOOOOOOOOOOOOOOOOOOOOOOOOOOOOOOOOOOOOOOOOOOOOOOOOOOOOOOOOOOOOOOOOOOOO................",
"................OOOOOOOOOOOOOOOOOOOOOOOOOOOOOOOOOOOOOOOOOOOOOOOOOOOOOOOOOOOOOOOOOOOOOOOOOOOOOOOOOOOOOOOOOOOOOOOOOOOOOOOOOOOOOOOOOOOOOOOOOOOOOOOOOOOOOOOOOOOOOOOOOOOOOOOOOOOOOOOO................",
"................OOOOOOOOOOOOOOOOOOOOOOOOOOOOOOOOOOOOOOOOOOOOOOOOOOOOOOOOOOOOOOOOOOOOOOOOOOOOOOOOOOOOOOOOOOOOOOOOOOOOOOOOOOOOOOOOOOOOOOOOOOOOOOOOOOOOOOOOOOOOOOOOOOOOOOOOOOOOOOOO................",
"................OOOOOOOOOOOOOOOOOOOOOOOOOOOOOOOOOOOOOOOOOOOOOOOOOOOOOOOOOOOOOOOOOOOOOOOOOOOOOOOOOOOOOOOOOOOOOOOOOOOOOOOOOOOOOOOOOOOOOOOOOOOOOOOOOOOOOOOOOOOOOOOOOOOOOOOOOOOOOOOO................",
"................OOOOOOOOOOOOOOOOOOOOOOOOOOOOOOOOOOOOOOOOOOOOOOOOOOOOOOOOOOOOOOOOOOOOOOOOOOOOOOOOOOOOOOOOOOOOOOOOOOOOOOOOOOOOOOOOOOOOOOOOOOOOOOOOOOOOOOOOOOOOOOOOOOOOOOOOOOOOOOOO................",
"................OOOOOOOOOOOOOOOOOOOOOOOOOOOOOOOOOOOOOOOOOOOOOOOOOOOOOOOOOOOOOOOOOOOOOOOOOOOOOOOOOOOOOOOOOOOOOOOOOOOOOOOOOOOOOOOOOOOOOOOOOOOOOOOOOOOOOOOOOOOOOOOOOOOOOOOOOOOOOOOO................",
"................OOOOOOOOOOOOOOOOOOOOOOOOOOOOOOOOOOOOOOOOOOOOOOOOOOOOOOOOOOOOOOOOOOOOOOOOOOOOOOOOOOOOOOOOOOOOOOOOOOOOOOOOOOOOOOOOOOOOOOOOOOOOOOOOOOOOOOOOOOOOOOOOOOOOOOOOOOOOOOOO................",
"................OOOOOOOOOOOOOOOOOOOOOOOOOOOOOOOOOOOOOOOOOOOOOOOOOOOOOOOOOOOOOOOOOOOOOOOOOOOOOOOOOOOOOOOOOOOOOOOOOOOOOOOOOOOOOOOOOOOOOOOOOOOOOOOOOOOOOOOOOOOOOOOOOOOOOOOOOOOOOOOO................",
"................OOOOOOOOOOOOOOOOOOOOOOOOOOOOOOOOOOOOOOOOOOOOOOOOOOOOOOOOOOOOOOOOOOOOOOOOOOOOOOOOOOOOOOOOOOOOOOOOOOOOOOOOOOOOOOOOOOOOOOOOOOOOOOOOOOOOOOOOOOOOOOOOOOOOOOOOOOOOOOOO................",
"................OOOOOOOOOOOOOOOOOOOOOOOOOOOOOOOOOOOOOOOOOOOOOOOOOOOOOOOOOOOOOOOOOOOOOOOOOOOOOOOOOOOOOOOOOOOOOOOOOOOOOOOOOOOOOOOOOOOOOOOOOOOOOOOOOOOOOOOOOOOOOOOOOOOOOOOOOOOOOOOO................",
"................OOOOOOOOOOOOOOOOOOOOOOOOOOOOOOOOOOOOOOOOOOOOOOOOOOOOOOOOOOOOOOOOOOOOOOOOOOOOOOOOOOOOOOOOOOOOOOOOOOOOOOOOOOOOOOOOOOOOOOOOOOOOOOOOOOOOOOOOOOOOOOOOOOOOOOOOOOOOOOOO................",
"................OOOOOOOOOOOOOOOOOOOOOOOOOOOOOOOOOOOOOOOOOOOOOOOOOOOOOOOOOOOOOOOOOOOOOOOOOOOOOOOOOOOOOOOOOOOOOOOOOOOOOOOOOOOOOOOOOOOOOOOOOOOOOOOOOOOOOOOOOOOOOOOOOOOOOOOOOOOOOOOO................",
"................OOOOOOOOOOOOOOOOOOOOOOOOOOOOOOOOOOOOOOOOOOOOOOOOOOOOOOOOOOOOOOOOOOOOOOOOOOOOOOOOOOOOOOOOOOOOOOOOOOOOOOOOOOOOOOOOOOOOOOOOOOOOOOOOOOOOOOOOOOOOOOOOOOOOOOOOOOOOOOOO................",
"................OOOOOOOOOOOOOOOOOOOOOOOOOOOOOOOOOOOOOOOOOOOOOOOOOOOOOOOOOOOOOOOOOOOOOOOOOOOOOOOOOOOOOOOOOOOOOOOOOOOOOOOOOOOOOOOOOOOOOOOOOOOOOOOOOOOOOOOOOOOOOOOOOOOOOOOOOOOOOOOO................",
"................OOOOOOOOOOOOOOOOOOOOOOOOOOOOOOOOOOOOOOOOOOOOOOOOOOOOOOOOOOOOOOOOOOOOOOOOOOOOOOOOOOOOOOOOOOOOOOOOOOOOOOOOOOOOOOOOOOOOOOOOOOOOOOOOOOOOOOOOOOOOOOOOOOOOOOOOOOOOOOOO................",
"................OOOOOOOOOOOOOOOOOOOOOOOOOOOOOOOOOOOOOOOOOOOOOOOOOOOOOOOOOOOOOOOOOOOOOOOOOOOOOOOOOOOOOOOOOOOOOOOOOOOOOOOOOOOOOOOOOOOOOOOOOOOOOOOOOOOOOOOOOOOOOOOOOOOOOOOOOOOOOOOO................",
"................OOOOOOOOOOOOOOOOOOOOOOOOOOOOOOOOOOOOOOOOOOOOOOOOOOOOOOOOOOOOOOOOOOOOOOOOOOOOOOOOOOOOOOOOOOOOOOOOOOOOOOOOOOOOOOOOOOOOOOOOOOOOOOOOOOOOOOOOOOOOOOOOOOOOOOOOOOOOOOOO................",
"................OOOOOOOOOOOOOOOOOOOOOOOOOOOOOOOOOOOOOOOOOOOOOOOOOOOOOOOOOOOOOOOOOOOOOOOOOOOOOOOOOOOOOOOOOOOOOOOOOOOOOOOOOOOOOOOOOOOOOOOOOOOOOOOOOOOOOOOOOOOOOOOOOOOOOOOOOOOOOOOO................",
"................OOOOOOOOOOOOOOOOOOOOOOOOOOOOOOOOOOOOOOOOOOOOOOOOOOOOOOOOOOOOOOOOOOOOOOOOOOOOOOOOOOOOOOOOOOOOOOOOOOOOOOOOOOOOOOOOOOOOOOOOOOOOOOOOOOOOOOOOOOOOOOOOOOOOOOOOOOOOOOOO................",
"................OOOOOOOOOOOOOOOOOOOOOOOOOOOOOOOOOOOOOOOOOOOOOOOOOOOOOOOOOOOOOOOOOOOOOOOOOOOOOOOOOOOOOOOOOOOOOOOOOOOOOOOOOOOOOOOOOOOOOOOOOOOOOOOOOOOOOOOOOOOOOOOOOOOOOOOOOOOOOOOO................",
"................OOOOOOOOOOOOOOOOOOOOOOOOOOOOOOOOOOOOOOOOOOOOOOOOOOOOOOOOOOOOOOOOOOOOOOOOOOOOOOOOOOOOOOOOOOOOOOOOOOOOOOOOOOOOOOOOOOOOOOOOOOOOOOOOOOOOOOOOOOOOOOOOOOOOOOOOOOOOOOOO................",
"................OOOOOOOOOOOOOOOOOOOOOOOOOOOOOOOOOOOOOOOOOOOOOOOOOOOOOOOOOOOOOOOOOOOOOOOOOOOOOOOOOOOOOOOOOOOOOOOOOOOOOOOOOOOOOOOOOOOOOOOOOOOOOOOOOOOOOOOOOOOOOOOOOOOOOOOOOOOOOOOO................",
"................OOOOOOOOOOOOOOOOOOOOOOOOOOOOOOOOOOOOOOOOOOOOOOOOOOOOOOOOOOOOOOOOOOOOOOOOOOOOOOOOOOOOOOOOOOOOOOOOOOOOOOOOOOOOOOOOOOOOOOOOOOOOOOOOOOOOOOOOOOOOOOOOOOOOOOOOOOOOOOOO................",
"................OOOOOOOOOOOOOOOOOOOOOOOOOOOOOOOOOOOOOOOOOOOOOOOOOOOOOOOOOOOOOOOOOOOOOOOOOOOOOOOOOOOOOOOOOOOOOOOOOOOOOOOOOOOOOOOOOOOOOOOOOOOOOOOOOOOOOOOOOOOOOOOOOOOOOOOOOOOOOOOO................",
"................OOOOOOOOOOOOOOOOOOOOOOOOOOOOOOOOOOOOOOOOOOOOOOOOOOOOOOOOOOOOOOOOOOOOOOOOOOOOOOOOOOOOOOOOOOOOOOOOOOOOOOOOOOOOOOOOOOOOOOOOOOOOOOOOOOOOOOOOOOOOOOOOOOOOOOOOOOOOOOOO................",
"................OOOOOOOOOOOOOOOOOOOOOOOOOOOOOOOOOOOOOOOOOOOOOOOOOOOOOOOOOOOOOOOOOOOOOOOOOOOOOOOOOOOOOOOOOOOOOOOOOOOOOOOOOOOOOOOOOOOOOOOOOOOOOOOOOOOOOOOOOOOOOOOOOOOOOOOOOOOOOOOO................",
"................OOOOOOOOOOOOOOOOOOOOOOOOOOOOOOOOOOOOOOOOOOOOOOOOOOOOOOOOOOOOOOOOOOOOOOOOOOOOOOOOOOOOOOOOOOOOOOOOOOOOOOOOOOOOOOOOOOOOOOOOOOOOOOOOOOOOOOOOOOOOOOOOOOOOOOOOOOOOOOOO................",
"................OOOOOOOOOOOOOOOOOOOOOOOOOOOOOOOOO                                                                                              OOOOOOOOOOOOOOOOOOOOOOOOOOOOOOOOO................",
"................OOOOOOOOOOOOOOOOOOOOOOOOOOOOOOOOO                                                                                              OOOOOOOOOOOOOOOOOOOOOOOOOOOOOOOOO................",
"................OOOOOOOOOOOOOOOOOOOOOOOOOOOOOOOOO                                                                                              OOOOOOOOOOOOOOOOOOOOOOOOOOOOOOOOO................",
"................OOOOOOOOOOOOOOOOOOOOOOOOOOOOOOOOO                                                                                              OOOOOOOOOOOOOOOOOOOOOOOOOOOOOOOOO................",
"................OOOOOOOOOOOOOOOOOOOOOOOOOOOOOOOOO                                                                                              OOOOOOOOOOOOOOOOOOOOOOOOOOOOOOOOO................",
"................OOOOOOOOOOOOOOOOOOOOOOOOOOOOOOOOO                                                                                              OOOOOOOOOOOOOOOOOOOOOOOOOOOOOOOOO................",
"................OOOOOOOOOOOOOOOOOOOOOOOOOOOOOOOOO                                                                                              OOOOOOOOOOOOOOOOOOOOOOOOOOOOOOOOO................",
"................OOOOOOOOOOOOOOOOOOOOOOOOOOOOOOOOO                                                                                              OOOOOOOOOOOOOOOOOOOOOOOOOOOOOOOOO................",
"................OOOOOOOOOOOOOOOOOOOOOOOOOOOOOOOOO                                                                                              OOOOOOOOOOOOOOOOOOOOOOOOOOOOOOOOO................",
"................OOOOOOOOOOOOOOOOOOOOOOOOOOOOOOOOO                                                                                              OOOOOOOOOOOOOOOOOOOOOOOOOOOOOOOOO................",
"................OOOOOOOOOOOOOOOOOOOOOOOOOOOOOOOOO                                                                                              OOOOOOOOOOOOOOOOOOOOOOOOOOOOOOOOO................",
"................OOOOOOOOOOOOOOOOOOOOOOOOOOOOOOOOO                                                                                              OOOOOOOOOOOOOOOOOOOOOOOOOOOOOOOOO................",
"................OOOOOOOOOOOOOOOOOOOOOOOOOOOOOOOOO                                                                                              OOOOOOOOOOOOOOOOOOOOOOOOOOOOOOOOO................",
"................OOOOOOOOOOOOOOOOOOOOOOOOOOOOOOOOO                                                                                              OOOOOOOOOOOOOOOOOOOOOOOOOOOOOOOOO................",
"................OOOOOOOOOOOOOOOOOOOOOOOOOOOOOOOOO                                                                                              OOOOOOOOOOOOOOOOOOOOOOOOOOOOOOOOO................",
"................OOOOOOOOOOOOOOOOOOOOOOOOOOOOOOOOO                                                                                              OOOOOOOOOOOOOOOOOOOOOOOOOOOOOOOOO................",
"................OOOOOOOOOOOOOOOOOOOOOOOOOOOOOOOOO                                                                                              OOOOOOOOOOOOOOOOOOOOOOOOOOOOOOOOO................",
"................OOOOOOOOOOOOOOOOOOOOOOOOOOOOOOOOO                                                                                              OOOOOOOOOOOOOOOOOOOOOOOOOOOOOOOOO................",
"................OOOOOOOOOOOOOOOOOOOOOOOOOOOOOOOOO                                                                                              OOOOOOOOOOOOOOOOOOOOOOOOOOOOOOOOO................",
"................OOOOOOOOOOOOOOOOOOOOOOOOOOOOOOOOO                                                                                              OOOOOOOOOOOOOOOOOOOOOOOOOOOOOOOOO................",
"................OOOOOOOOOOOOOOOOOOOOOOOOOOOOOOOOO                                                                                              OOOOOOOOOOOOOOOOOOOOOOOOOOOOOOOOO................",
"................OOOOOOOOOOOOOOOOOOOOOOOOOOOOOOOOO                                                                                              OOOOOOOOOOOOOOOOOOOOOOOOOOOOOOOOO................",
"................OOOOOOOOOOOOOOOOOOOOOOOOOOOOOOOOO                                                                                              OOOOOOOOOOOOOOOOOOOOOOOOOOOOOOOOO................",
"................OOOOOOOOOOOOOOOOOOOOOOOOOOOOOOOOO                                                                                              OOOOOOOOOOOOOOOOOOOOOOOOOOOOOOOOO................",
"................OOOOOOOOOOOOOOOOOOOOOOOOOOOOOOOOO                                                                                              OOOOOOOOOOOOOOOOOOOOOOOOOOOOOOOOO................",
"................OOOOOOOOOOOOOOOOOOOOOOOOOOOOOOOOO                                                                                              OOOOOOOOOOOOOOOOOOOOOOOOOOOOOOOOO................",
"................OOOOOOOOOOOOOOOOOOOOOOOOOOOOOOOOO                                                                                              OOOOOOOOOOOOOOOOOOOOOOOOOOOOOOOOO................",
"................OOOOOOOOOOOOOOOOOOOOOOOOOOOOOOOOO                                                                                              OOOOOOOOOOOOOOOOOOOOOOOOOOOOOOOOO................",
"................OOOOOOOOOOOOOOOOOOOOOOOOOOOOOOOOO                                                                                              OOOOOOOOOOOOOOOOOOOOOOOOOOOOOOOOO................",
"................OOOOOOOOOOOOOOOOOOOOOOOOOOOOOOOOO                                                                                              OOOOOOOOOOOOOOOOOOOOOOOOOOOOOOOOO................",
"................OOOOOOOOOOOOOOOOOOOOOOOOOOOOOOOOO                                                                                              OOOOOOOOOOOOOOOOOOOOOOOOOOOOOOOOO................",
"................OOOOOOOOOOOOOOOOOOOOOOOOOOOOOOOOO                                                                                              OOOOOOOOOOOOOOOOOOOOOOOOOOOOOOOOO................",
"................OOOOOOOOOOOOOOOOOOOOOOOOOOOOOOOOO                                                                                              OOOOOOOOOOOOOOOOOOOOOOOOOOOOOOOOO................",
"................OOOOOOOOOOOOOOOOOOOOOOOOOOOOOOOOO                                                                                              OOOOOOOOOOOOOOOOOOOOOOOOOOOOOOOOO................",
"................OOOOOOOOOOOOOOOOOOOOOOOOOOOOOOOOO                                                                                              OOOOOOOOOOOOOOOOOOOOOOOOOOOOOOOOO................",
"................OOOOOOOOOOOOOOOOOOOOOOOOOOOOOOOOO                                                                                              OOOOOOOOOOOOOOOOOOOOOOOOOOOOOOOOO................",
"................OOOOOOOOOOOOOOOOOOOOOOOOOOOOOOOOO                                                                                              OOOOOOOOOOOOOOOOOOOOOOOOOOOOOOOOO................",
"................OOOOOOOOOOOOOOOOOOOOOOOOOOOOOOOOO                                                                                              OOOOOOOOOOOOOOOOOOOOOOOOOOOOOOOOO................",
"................OOOOOOOOOOOOOOOOOOOOOOOOOOOOOOOOO                                                                                              OOOOOOOOOOOOOOOOOOOOOOOOOOOOOOOOO................",
"................OOOOOOOOOOOOOOOOOOOOOOOOOOOOOOOOO                                                                                              OOOOOOOOOOOOOOOOOOOOOOOOOOOOOOOOO................",
"................OOOOOOOOOOOOOOOOOOOOOOOOOOOOOOOOO                                                                                              OOOOOOOOOOOOOOOOOOOOOOOOOOOOOOOOO................",
"................OOOOOOOOOOOOOOOOOOOOOOOOOOOOOOOOO                                                                                              OOOOOOOOOOOOOOOOOOOOOOOOOOOOOOOOO................",
"................OOOOOOOOOOOOOOOOOOOOOOOOOOOOOOOOO                                                                                              OOOOOOOOOOOOOOOOOOOOOOOOOOOOOOOOO................",
"................OOOOOOOOOOOOOOOOOOOOOOOOOOOOOOOOO                                                                                              OOOOOOOOOOOOOOOOOOOOOOOOOOOOOOOOO................",
"................OOOOOOOOOOOOOOOOOOOOOOOOOOOOOOOOO                                                                                              OOOOOOOOOOOOOOOOOOOOOOOOOOOOOOOOO................",
"................OOOOOOOOOOOOOOOOOOOOOOOOOOOOOOOOO                                                                                              OOOOOOOOOOOOOOOOOOOOOOOOOOOOOOOOO................",
"................OOOOOOOOOOOOOOOOOOOOOOOOOOOOOOOOO                                                                                              OOOOOOOOOOOOOOOOOOOOOOOOOOOOOOOOO................",
"................OOOOOOOOOOOOOOOOOOOOOOOOOOOOOOOOO                                                                                              OOOOOOOOOOOOOOOOOOOOOOOOOOOOOOOOO................",
"................OOOOOOOOOOOOOOOOOOOOOOOOOOOOOOOOO                                                                                              OOOOOOOOOOOOOOOOOOOOOOOOOOOOOOOOO................",
"................OOOOOOOOOOOOOOOOOOOOOOOOOOOOOOOOO                                                                                              OOOOOOOOOOOOOOOOOOOOOOOOOOOOOOOOO................",
"................OOOOOOOOOOOOOOOOOOOOOOOOOOOOOOOOO                                                                                              OOOOOOOOOOOOOOOOOOOOOOOOOOOOOOOOO................",
"................OOOOOOOOOOOOOOOOOOOOOOOOOOOOOOOOO                                                                                              OOOOOOOOOOOOOOOOOOOOOOOOOOOOOOOOO................",
"................OOOOOOOOOOOOOOOOOOOOOOOOOOOOOOOOO                                                                                              OOOOOOOOOOOOOOOOOOOOOOOOOOOOOOOOO................",
"................OOOOOOOOOOOOOOOOOOOOOOOOOOOOOOOOO                                                                                              OOOOOOOOOOOOOOOOOOOOOOOOOOOOOOOOO................",
"................OOOOOOOOOOOOOOOOOOOOOOOOOOOOOOOOO                                                                                              OOOOOOOOOOOOOOOOOOOOOOOOOOOOOOOOO................",
"................OOOOOOOOOOOOOOOOOOOOOOOOOOOOOOOOO                                                                                              OOOOOOOOOOOOOOOOOOOOOOOOOOOOOOOOO................",
"................OOOOOOOOOOOOOOOOOOOOOOOOOOOOOOOOO                                                                                              OOOOOOOOOOOOOOOOOOOOOOOOOOOOOOOOO................",
"................OOOOOOOOOOOOOOOOOOOOOOOOOOOOOOOOO                                                                                              OOOOOOOOOOOOOOOOOOOOOOOOOOOOOOOOO................",
"................OOOOOOOOOOOOOOOOOOOOOOOOOOOOOOOOO                                                                                              OOOOOOOOOOOOOOOOOOOOOOOOOOOOOOOOO................",
"................OOOOOOOOOOOOOOOOOOOOOOOOOOOOOOOOO                                                                                              OOOOOOOOOOOOOOOOOOOOOOOOOOOOOOOOO................",
"................OOOOOOOOOOOOOOOOOOOOOOOOOOOOOOOOO                                                                                              OOOOOOOOOOOOOOOOOOOOOOOOOOOOOOOOO................",
"................OOOOOOOOOOOOOOOOOOOOOOOOOOOOOOOOO                                                                                              OOOOOOOOOOOOOOOOOOOOOOOOOOOOOOOOO................",
"................OOOOOOOOOOOOOOOOOOOOOOOOOOOOOOOOO                                                                                              OOOOOOOOOOOOOOOOOOOOOOOOOOOOOOOOO................",
"................OOOOOOOOOOOOOOOOOOOOOOOOOOOOOOOOO                                                                                              OOOOOOOOOOOOOOOOOOOOOOOOOOOOOOOOO................",
"................OOOOOOOOOOOOOOOOOOOOOOOOOOOOOOOOO                                                                                              OOOOOOOOOOOOOOOOOOOOOOOOOOOOOOOOO................",
"................OOOOOOOOOOOOOOOOOOOOOOOOOOOOOOOOO                                                                                              OOOOOOOOOOOOOOOOOOOOOOOOOOOOOOOOO................",
"................OOOOOOOOOOOOOOOOOOOOOOOOOOOOOOOOO                                                                                              OOOOOOOOOOOOOOOOOOOOOOOOOOOOOOOOO................",
"................OOOOOOOOOOOOOOOOOOOOOOOOOOOOOOOOO                                                                                              OOOOOOOOOOOOOOOOOOOOOOOOOOOOOOOOO................",
"................OOOOOOOOOOOOOOOOOOOOOOOOOOOOOOOOO                                                                                              OOOOOOOOOOOOOOOOOOOOOOOOOOOOOOOOO................",
"................OOOOOOOOOOOOOOOOOOOOOOOOOOOOOOOOO                                                                                              OOOOOOOOOOOOOOOOOOOOOOOOOOOOOOOOO................",
"................OOOOOOOOOOOOOOOOOOOOOOOOOOOOOOOOO                                                                                              OOOOOOOOOOOOOOOOOOOOOOOOOOOOOOOOO................",
"................OOOOOOOOOOOOOOOOOOOOOOOOOOOOOOOOO                                                                                              OOOOOOOOOOOOOOOOOOOOOOOOOOOOOOOOO................",
"................OOOOOOOOOOOOOOOOOOOOOOOOOOOOOOOOO                                                                                              OOOOOOOOOOOOOOOOOOOOOOOOOOOOOOOOO................",
"................OOOOOOOOOOOOOOOOOOOOOOOOOOOOOOOOO                                                                                              OOOOOOOOOOOOOOOOOOOOOOOOOOOOOOOOO................",
"................OOOOOOOOOOOOOOOOOOOOOOOOOOOOOOOOO                                                                                              OOOOOOOOOOOOOOOOOOOOOOOOOOOOOOOOO................",
"................OOOOOOOOOOOOOOOOOOOOOOOOOOOOOOOOO                                                                                              OOOOOOOOOOOOOOOOOOOOOOOOOOOOOOOOO................",
"................OOOOOOOOOOOOOOOOOOOOOOOOOOOOOOOOO                                                                                              OOOOOOOOOOOOOOOOOOOOOOOOOOOOOOOOO................",
"................OOOOOOOOOOOOOOOOOOOOOOOOOOOOOOOOO                                                                                              OOOOOOOOOOOOOOOOOOOOOOOOOOOOOOOOO................",
"................OOOOOOOOOOOOOOOOOOOOOOOOOOOOOOOOO                                                                                              OOOOOOOOOOOOOOOOOOOOOOOOOOOOOOOOO................",
"................OOOOOOOOOOOOOOOOOOOOOOOOOOOOOOOOO                                                                                              OOOOOOOOOOOOOOOOOOOOOOOOOOOOOOOOO................",
"................OOOOOOOOOOOOOOOOOOOOOOOOOOOOOOOOO                                                                                              OOOOOOOOOOOOOOOOOOOOOOOOOOOOOOOOO................",
"................OOOOOOOOOOOOOOOOOOOOOOOOOOOOOOOOO                                                                                              OOOOOOOOOOOOOOOOOOOOOOOOOOOOOOOOO................",
"................OOOOOOOOOOOOOOOOOOOOOOOOOOOOOOOOO                                                                                              OOOOOOOOOOOOOOOOOOOOOOOOOOOOOOOOO................",
"................OOOOOOOOOOOOOOOOOOOOOOOOOOOOOOOOO                                                                                              OOOOOOOOOOOOOOOOOOOOOOOOOOOOOOOOO................",
"................OOOOOOOOOOOOOOOOOOOOOOOOOOOOOOOOO                                                                                              OOOOOOOOOOOOOOOOOOOOOOOOOOOOOOOOO................",
"................OOOOOOOOOOOOOOOOOOOOOOOOOOOOOOOOO                                                                                              OOOOOOOOOOOOOOOOOOOOOOOOOOOOOOOOO................",
"................OOOOOOOOOOOOOOOOOOOOOOOOOOOOOOOOO                                                                                              OOOOOOOOOOOOOOOOOOOOOOOOOOOOOOOOO................",
"................OOOOOOOOOOOOOOOOOOOOOOOOOOOOOOOOO                                                                                              OOOOOOOOOOOOOOOOOOOOOOOOOOOOOOOOO................",
"................OOOOOOOOOOOOOOOOOOOOOOOOOOOOOOOOO                                                                                              OOOOOOOOOOOOOOOOOOOOOOOOOOOOOOOOO................",
"................OOOOOOOOOOOOOOOOOOOOOOOOOOOOOOOOO                                                                                              OOOOOOOOOOOOOOOOOOOOOOOOOOOOOOOOO................",
"................OOOOOOOOOOOOOOOOOOOOOOOOOOOOOOOOO                                                                                              OOOOOOOOOOOOOOOOOOOOOOOOOOOOOOOOO................",
"................OOOOOOOOOOOOOOOOOOOOOOOOOOOOOOOOO                                                                                              OOOOOOOOOOOOOOOOOOOOOOOOOOOOOOOOO................",
"................OOOOOOOOOOOOOOOOOOOOOOOOOOOOOOOOO                                                                                              OOOOOOOOOOOOOOOOOOOOOOOOOOOOOOOOO................",
"................OOOOOOOOOOOOOOOOOOOOOOOOOOOOOOOOO                                                                                              OOOOOOOOOOOOOOOOOOOOOOOOOOOOOOOOO................",
"................OOOOOOOOOOOOOOOOOOOOOOOOOOOOOOOOO                                                                                              OOOOOOOOOOOOOOOOOOOOOOOOOOOOOOOOO................",
"................OOOOOOOOOOOOOOOOOOOOOOOOOOOOOOOOO                                                                                              OOOOOOOOOOOOOOOOOOOOOOOOOOOOOOOOO................",
"................OOOOOOOOOOOOOOOOOOOOOOOOOOOOOOOOO                                                                                              OOOOOOOOOOOOOOOOOOOOOOOOOOOOOOOOO................",
"................OOOOOOOOOOOOOOOOOOOOOOOOOOOOOOOOO                                                                                              OOOOOOOOOOOOOOOOOOOOOOOOOOOOOOOOO................",
"................OOOOOOOOOOOOOOOOOOOOOOOOOOOOOOOOO                                                                                              OOOOOOOOOOOOOOOOOOOOOOOOOOOOOOOOO................",
"................OOOOOOOOOOOOOOOOOOOOOOOOOOOOOOOOO                                                                                              OOOOOOOOOOOOOOOOOOOOOOOOOOOOOOOOO................",
"................OOOOOOOOOOOOOOOOOOOOOOOOOOOOOOOOO                                                                                              OOOOOOOOOOOOOOOOOOOOOOOOOOOOOOOOO................",
"................OOOOOOOOOOOOOOOOOOOOOOOOOOOOOOOOO                                                                                              OOOOOOOOOOOOOOOOOOOOOOOOOOOOOOOOO................",
"................OOOOOOOOOOOOOOOOOOOOOOOOOOOOOOOOO                                                                                              OOOOOOOOOOOOOOOOOOOOOOOOOOOOOOOOO................",
"................OOOOOOOOOOOOOOOOOOOOOOOOOOOOOOOOO                                                                                              OOOOOOOOOOOOOOOOOOOOOOOOOOOOOOOOO................",
"................OOOOOOOOOOOOOOOOOOOOOOOOOOOOOOOOO                                                                                              OOOOOOOOOOOOOOOOOOOOOOOOOOOOOOOOO................",
"................OOOOOOOOOOOOOOOOOOOOOOOOOOOOOOOOO                                                                                              OOOOOOOOOOOOOOOOOOOOOOOOOOOOOOOOO................",
"................OOOOOOOOOOOOOOOOOOOOOOOOOOOOOOOOO                                                                                              OOOOOOOOOOOOOOOOOOOOOOOOOOOOOOOOO................",
"................OOOOOOOOOOOOOOOOOOOOOOOOOOOOOOOOO                                                                                              OOOOOOOOOOOOOOOOOOOOOOOOOOOOOOOOO................",
"................OOOOOOOOOOOOOOOOOOOOOOOOOOOOOOOOO                                                                                              OOOOOOOOOOOOOOOOOOOOOOOOOOOOOOOOO................",
"................OOOOOOOOOOOOOOOOOOOOOOOOOOOOOOOOO                                                                                              OOOOOOOOOOOOOOOOOOOOOOOOOOOOOOOOO................",
"................OOOOOOOOOOOOOOOOOOOOOOOOOOOOOOOOO                                                                                              OOOOOOOOOOOOOOOOOOOOOOOOOOOOOOOOO................",
"................OOOOOOOOOOOOOOOOOOOOOOOOOOOOOOOOO                                                                                              OOOOOOOOOOOOOOOOOOOOOOOOOOOOOOOOO................",
"................OOOOOOOOOOOOOOOOOOOOOOOOOOOOOOOOO                                                                                              OOOOOOOOOOOOOOOOOOOOOOOOOOOOOOOOO................",
"................OOOOOOOOOOOOOOOOOOOOOOOOOOOOOOOOO                                                                                              OOOOOOOOOOOOOOOOOOOOOOOOOOOOOOOOO................",
"................OOOOOOOOOOOOOOOOOOOOOOOOOOOOOOOOO                                                                                              OOOOOOOOOOOOOOOOOOOOOOOOOOOOOOOOO................",
"................OOOOOOOOOOOOOOOOOOOOOOOOOOOOOOOOO                                                                                              OOOOOOOOOOOOOOOOOOOOOOOOOOOOOOOOO................",
"................OOOOOOOOOOOOOOOOOOOOOOOOOOOOOOOOO                                                                                              OOOOOOOOOOOOOOOOOOOOOOOOOOOOOOOOO................",
"................OOOOOOOOOOOOOOOOOOOOOOOOOOOOOOOOO                                                                                              OOOOOOOOOOOOOOOOOOOOOOOOOOOOOOOOO................",
"................OOOOOOOOOOOOOOOOOOOOOOOOOOOOOOOOO                                                                                              OOOOOOOOOOOOOOOOOOOOOOOOOOOOOOOOO................",
"................OOOOOOOOOOOOOOOOOOOOOOOOOOOOOOOOO                                                                                              OOOOOOOOOOOOOOOOOOOOOOOOOOOOOOOOO................",
"................OOOOOOOOOOOOOOOOOOOOOOOOOOOOOOOOO                                                                                              OOOOOOOOOOOOOOOOOOOOOOOOOOOOOOOOO................",
"................OOOOOOOOOOOOOOOOOOOOOOOOOOOOOOOOO                                                                                              OOOOOOOOOOOOOOOOOOOOOOOOOOOOOOOOO................",
"................OOOOOOOOOOOOOOOOOOOOOOOOOOOOOOOOO                                                                                              OOOOOOOOOOOOOOOOOOOOOOOOOOOOOOOOO................",
"................OOOOOOOOOOOOOOOOOOOOOOOOOOOOOOOOO                                                                                              OOOOOOOOOOOOOOOOOOOOOOOOOOOOOOOOO................",
"................OOOOOOOOOOOOOOOOOOOOOOOOOOOOOOOOO                                                                                              OOOOOOOOOOOOOOOOOOOOOOOOOOOOOOOOO................",
"................OOOOOOOOOOOOOOOOOOOOOOOOOOOOOOOOO                                                                                              OOOOOOOOOOOOOOOOOOOOOOOOOOOOOOOOO................",
"................OOOOOOOOOOOOOOOOOOOOOOOOOOOOOOOOOOOOOOOOOOOOOOOOOOOOOOOOOOOOOOOOOOOOOOOOOOOOOOOOOOOOOOOOOOOOOOOOOOOOOOOOOOOOOOOOOOOOOOOOOOOOOOOOOOOOOOOOOOOOOOOOOOOOOOOOOOOOOOOO................",
"................OOOOOOOOOOOOOOOOOOOOOOOOOOOOOOOOOOOOOOOOOOOOOOOOOOOOOOOOOOOOOOOOOOOOOOOOOOOOOOOOOOOOOOOOOOOOOOOOOOOOOOOOOOOOOOOOOOOOOOOOOOOOOOOOOOOOOOOOOOOOOOOOOOOOOOOOOOOOOOOO................",
"................OOOOOOOOOOOOOOOOOOOOOOOOOOOOOOOOOOOOOOOOOOOOOOOOOOOOOOOOOOOOOOOOOOOOOOOOOOOOOOOOOOOOOOOOOOOOOOOOOOOOOOOOOOOOOOOOOOOOOOOOOOOOOOOOOOOOOOOOOOOOOOOOOOOOOOOOOOOOOOOO................",
"................OOOOOOOOOOOOOOOOOOOOOOOOOOOOOOOOOOOOOOOOOOOOOOOOOOOOOOOOOOOOOOOOOOOOOOOOOOOOOOOOOOOOOOOOOOOOOOOOOOOOOOOOOOOOOOOOOOOOOOOOOOOOOOOOOOOOOOOOOOOOOOOOOOOOOOOOOOOOOOOO................",
"................OOOOOOOOOOOOOOOOOOOOOOOOOOOOOOOOOOOOOOOOOOOOOOOOOOOOOOOOOOOOOOOOOOOOOOOOOOOOOOOOOOOOOOOOOOOOOOOOOOOOOOOOOOOOOOOOOOOOOOOOOOOOOOOOOOOOOOOOOOOOOOOOOOOOOOOOOOOOOOOO................",
"................OOOOOOOOOOOOOOOOOOOOOOOOOOOOOOOOOOOOOOOOOOOOOOOOOOOOOOOOOOOOOOOOOOOOOOOOOOOOOOOOOOOOOOOOOOOOOOOOOOOOOOOOOOOOOOOOOOOOOOOOOOOOOOOOOOOOOOOOOOOOOOOOOOOOOOOOOOOOOOOO................",
"................OOOOOOOOOOOOOOOOOOOOOOOOOOOOOOOOOOOOOOOOOOOOOOOOOOOOOOOOOOOOOOOOOOOOOOOOOOOOOOOOOOOOOOOOOOOOOOOOOOOOOOOOOOOOOOOOOOOOOOOOOOOOOOOOOOOOOOOOOOOOOOOOOOOOOOOOOOOOOOOO................",
"................OOOOOOOOOOOOOOOOOOOOOOOOOOOOOOOOOOOOOOOOOOOOOOOOOOOOOOOOOOOOOOOOOOOOOOOOOOOOOOOOOOOOOOOOOOOOOOOOOOOOOOOOOOOOOOOOOOOOOOOOOOOOOOOOOOOOOOOOOOOOOOOOOOOOOOOOOOOOOOOO................",
"................OOOOOOOOOOOOOOOOOOOOOOOOOOOOOOOOOOOOOOOOOOOOOOOOOOOOOOOOOOOOOOOOOOOOOOOOOOOOOOOOOOOOOOOOOOOOOOOOOOOOOOOOOOOOOOOOOOOOOOOOOOOOOOOOOOOOOOOOOOOOOOOOOOOOOOOOOOOOOOOO................",
"................OOOOOOOOOOOOOOOOOOOOOOOOOOOOOOOOOOOOOOOOOOOOOOOOOOOOOOOOOOOOOOOOOOOOOOOOOOOOOOOOOOOOOOOOOOOOOOOOOOOOOOOOOOOOOOOOOOOOOOOOOOOOOOOOOOOOOOOOOOOOOOOOOOOOOOOOOOOOOOOO................",
"................OOOOOOOOOOOOOOOOOOOOOOOOOOOOOOOOOOOOOOOOOOOOOOOOOOOOOOOOOOOOOOOOOOOOOOOOOOOOOOOOOOOOOOOOOOOOOOOOOOOOOOOOOOOOOOOOOOOOOOOOOOOOOOOOOOOOOOOOOOOOOOOOOOOOOOOOOOOOOOOO................",
"................OOOOOOOOOOOOOOOOOOOOOOOOOOOOOOOOOOOOOOOOOOOOOOOOOOOOOOOOOOOOOOOOOOOOOOOOOOOOOOOOOOOOOOOOOOOOOOOOOOOOOOOOOOOOOOOOOOOOOOOOOOOOOOOOOOOOOOOOOOOOOOOOOOOOOOOOOOOOOOOO................",
"................OOOOOOOOOOOOOOOOOOOOOOOOOOOOOOOOOOOOOOOOOOOOOOOOOOOOOOOOOOOOOOOOOOOOOOOOOOOOOOOOOOOOOOOOOOOOOOOOOOOOOOOOOOOOOOOOOOOOOOOOOOOOOOOOOOOOOOOOOOOOOOOOOOOOOOOOOOOOOOOO................",
"................OOOOOOOOOOOOOOOOOOOOOOOOOOOOOOOOOOOOOOOOOOOOOOOOOOOOOOOOOOOOOOOOOOOOOOOOOOOOOOOOOOOOOOOOOOOOOOOOOOOOOOOOOOOOOOOOOOOOOOOOOOOOOOOOOOOOOOOOOOOOOOOOOOOOOOOOOOOOOOOO................",
"................OOOOOOOOOOOOOOOOOOOOOOOOOOOOOOOOOOOOOOOOOOOOOOOOOOOOOOOOOOOOOOOOOOOOOOOOOOOOOOOOOOOOOOOOOOOOOOOOOOOOOOOOOOOOOOOOOOOOOOOOOOOOOOOOOOOOOOOOOOOOOOOOOOOOOOOOOOOOOOOO................",
"................OOOOOOOOOOOOOOOOOOOOOOOOOOOOOOOOOOOOOOOOOOOOOOOOOOOOOOOOOOOOOOOOOOOOOOOOOOOOOOOOOOOOOOOOOOOOOOOOOOOOOOOOOOOOOOOOOOOOOOOOOOOOOOOOOOOOOOOOOOOOOOOOOOOOOOOOOOOOOOOO................",
"................................................................................................................................................................................................",
"XXXXXXXXXXXXXXXX.XXXXXXXXXXXXXXXXXXXXXXXXXXXXXXXXXXXXXXXXXXXXXXXXXXXXXXXXXXXXXXXXXXXXXXXXXXXXXXXXXXXXXXXXXXXXXXXXXXXXXXXXXXXXXXXXXXXXXXXXXXXXXXXXXXXXXXXXXXXXXXXXXXXXXXXXXXXXXXXXXXXXXXXXXXXXXXX",
"XOOOOOOOOOOOOOOOOOOOOOOOOOOOOOOOOOOOOOOOOOOOOOOOOOOOOOOOOOOOOOOOOOOOOOOOOOOOOOOOOOOOOOOOOOOOOOOOOOOOOOOOOOOOOOOOOOOOOOOOOOOOOOOOOOOOOOOOOOOOOOOOOOOOOOOOOOOOOOOOOOOOOOOOOOOOOOOOOOOOOOOOOOOOOOOX",
"XO#O##O##O##O##O##O##O##O##O##O##O##O##O##O##O##O##O##O##O##O##O##O##O##OOOOOO$$$$$$$$$$$$$$$$$$$$$$$$$$$$$$$$$$$$OOOO#OO#O##O##O##O##O##O##O##O##O##O##O##O##O##O##O##O##O##O##O##O##O##O##O#OX",
"XOOOOOOOOOOOOOOOOOOOOOOOOOOOOOOOOOOOOOOOOOOOOOOOOOOOOOOOOOOOOOOOOOOOOOOOOOOOOO$OOOOOOOOOOOOOOOOOOOOOOOOOOOOOOOOOO$OOOOOOOOOOOOOOOOOOOOOOOOOOOOOOOOOOOOOOOOOOOOOOOOOOOOOOOOOOOOOOOOOOOOOOOOOOOOOX",
"XO#OOOOOOOOOOOOOOOOOOOOOOOOOOOOOOOOOOOOOOOOOOOOOOOOOOOOOOOOOOOOOOOOOOOO#OOOOOO$O$$$$$$$$$$$$$$$$$$$$$$$$$$$$$$$$O$OOOO#OOOOOOOOOOOOOOOOOOOOOOOOOOOOOOOOOOOOOOOOOOOOOOOOOOOOOOOOOOOOOOOOOOOOOO#OX",
"XOOOOOOOOOOOOOOOOOOOOOOOOOOOOOOOOOOOOOOOOOOOOOOOOOOOOOOOOOOOOOOOOOOOOOOOOOOOOO$O$OOOOOOOOOOOOOOOOOOOOOOOOOOOOOO$O$OOOOOOOOOOOOOOOOOOOOOOOOOOOOOOOOOOOOOOOOOOOOOOOOOOOOOOOOOOOOOOOOOOOOOOOOOOOOOX",
"XO#OOOOOOOOOOOOOOOOOOOOOOOOOOOOOOOOOOOOOOOOOOOOOOOOOOOOOOOOOOOOOOOOOOOO#OOOOOO$O$OOOOOOOOOOOO@@@@@@OOOOOOOOOOOO$O$OOOO#OOOOOOOOOOOOOOOOOOOOOOOOOOOOOOOOOOOOOOOOOOOOOOOOOOOOOOOOOOOOOOOOOOOOOO#OX",
"XOOOOOOOOOOOOOOOOOOOOOOOOOOOOOOOOOOOOOOOOOOOOOOOOOOOOOOOOOOOOOOOOOOOOOOOOOOOOO$O$OOOOOOOOOOO@@@@@@@@OOOOOOOOOOO$O$OOOOOOOOOOOOOOOOOOOOOOOOOOOOOOOOOOOOOOOOOOOOOOOOOOOOOOOOOOOOOOOOOOOOOOOOOOOOOX",
"XO#OOOOOOOOOOOOOOOOOOOOOOOOOOOOOOOOOOOOOOOOOOOOOOOOOOOOOOOOOOOOOOOOOOOO#OOOOOO$O$OOOOOOOOOOO@@@@@@@@OOOOOOOOOOO$O$OOOO#OOOOOOOOOOOOOOOOOOOOOOOOOOOOOOOOOOOOOOOOOOOOOOOOOOOOOOOOOOOOOOOOOOOOOO#OX",
"XOOOOOOOOOOOOOOOOOOOOOOOOOOOOOOOOOOOOOOOOOOOOOOOOOOOOOOOOOOOOOOOOOOOOOOOOOOOOO$O$OOOOOOOOOOO@@@@@@@@OOOOOOOOOOO$O$OOOOOOOOOOOOOOOOOOOOOOOOOOOOOOOOOOOOOOOOOOOOOOOOOOOOOOOOOOOOOOOOOOOOOOOOOOOOOX",
"XO#OOOOOOOOOOOOOOOOOOOOOOOOOOOOOOOOOOOOOOOOOOOOOOOOOOOOOOOOOOOOOOOOOOOO#OOOOOO$O$OOOOOOOOOOOO@@@@@@OOOOOOOOOOOO$O$OOOO#OOOOOOOOOOOOOOOOOOOOOOOOOOOOOOOOOOOOOOOOOOOOOOOOOOOOOOOOOOOOOOOOOOOOOO#OX",
"XOOOOOOOOOOOOOOOOOOOOOOOOOOOOOOOOOOOOOOOOOOOOOOOOOOOOOOOOOOOOOOOOOOOOOOOOOOOOO$O$OOOOOOOOOOOOOooooOOOOOOOOOOOOO$O$OOOOOOOOOOOOOOOOOOOOOOOOOOOOOOOOOOOOOOOOOOOOOOOOOOOOOOOOOOOOOOOOOOOOOOOOOOOOOX",
"XO#OOOOOOOOOOOOOOOOOOOOOOOOOOOOOOOOOOOOOOOOOOOOOOOOOOOOOOOOOOOOOOOOOOOO#OOOOOO$O$OOOOOOOOOOOOOooooOOOOOOOOOOOOO$O$OOOO#OOOOOOOOOOOOOOOOOOOOOOOOOOOOOOOOOOOOOOOOOOOOOOOOOOOOOOOOOOOOOOOOOOOOOO#OX",
"XOOOOOOOOOOOOOOOOOOOOOOOOOOOOOOOOOOOOOOOOOOOOOOOOOOOOOOOOOOOOOOOOOOOOOOOOOOOOO$O$OOOOOOOOOO@OOooooOO@OOOOOOOOOO$O$OOOOOOOOOOOOOOOOOOOOOOOOOOOOOOOOOOOOOOOOOOOOOOOOOOOOOOOOOOOOOOOOOOOOOOOOOOOOOX",
"XO#OOOOOOOOOOOOOOOOOOOOOOOOOOOOOOOOOOOOOOOOOOOOOOOOOOOOOOOOOOOOOOOOOOOO#OOOOOO$O$OOOOOOOOO@@OOooooOO@@OOOOOOOOO$O$OOOO#OOOOOOOOOOOOOOOOOOOOOOOOOOOOOOOOOOOOOOOOOOOOOOOOOOOOOOOOOOOOOOOOOOOOOO#OX",
"XOOOOOOOOOOOOOOOOOOOOOOOOOOOOOOOOOOOOOOOOOOOOOOOOOOOOOOOOOOOOOOOOOOOOOOOOOOOOO$O$OOOOOOOO@@@OOooooOO@@@OOOOOOOO$O$OOOOOOOOOOOOOOOOOOOOOOOOOOOOOOOOOOOOOOOOOOOOOOOOOOOOOOOOOOOOOOOOOOOOOOOOOOOOOX",
"XO#OOOOOOOOOOOOOOOOOOOOOOOOOOOOOOOOOOOOOOOOOOOOOOOOOOOOOOOOOOOOOOOOOOOO#OOOOOO$O$OOOOOOOO@@@OOooooOO@@@OOOOOOOO$O$OOOO#OOOOOOOOOOOOOOOOOOOOOOOOOOOOOOOOOOOOOOOOOOOOOOOOOOOOOOOOOOOOOOOOOOOOOO#OX",
"XOOOOOOOOOOOOOOOOOOOOOOOOOOOOOOOOOOOOOOOOOOOOOOOOOOOOOOOOOOOOOOOOOOOOOOOOOOOOO$O$OOOOOOOOO@@OOooooOO@@OOOOOOOOO$O$OOOOOOOOOOOOOOOOOOOOOOOOOOOOOOOOOOOOOOOOOOOOOOOOOOOOOOOOOOOOOOOOOOOOOOOOOOOOOX",
"XO#OOOOOOOOOOOOOOOOOOOOOOOOOOOOOOOOOOOOOOOOOOOOOOOOOOOOOOOOOOOOOOOOOOOO#OOOOOO$O$OOOOOOOOOO@OOOOOOOO@OOOOOOOOOO$O$OOOO#OOOOOOOOOOOOOOOOOOOOOOOOOOOOOOOOOOOOOOOOOOOOOOOOOOOOOOOOOOOOOOOOOOOOOO#OX",
"XOOOOOOOOOOOOOOOOOOOOOOOOOOOOOOOOOOOOOOOOOOOOOOOOOOOOOOOOOOOOOOOOOOOOOOOOOOOOO$O$OOOOOOOOOOOOOOOOOOOOOOOOOOOOOO$O$OOOOOOOOOOOOOOOOOOOOOOOOOOOOOOOOOOOOOOOOOOOOOOOOOOOOOOOOOOOOOOOOOOOOOOOOOOOOOX",
"XO#OOOOOOOOOOOOOOOOOOOOOOOOOOOOOOOOOOOOOOOOOOOOOOOOOOOOOOOOOOOOOOOOOOOO#OOOOOO$O$OOOOOOOOOOOO@@@@@@OOOOOOOOOOOO$O$OOOO#OOOOOOOOOOOOOOOOOOOOOOOOOOOOOOOOOOOOOOOOOOOOOOOOOOOOOOOOOOOOOOOOOOOOOO#OX",
"XOOOOOOOOOOOOOOOOOOOOOOOOOOOOOOOOOOOOOOOOOOOOOOOOOOOOOOOOOOOOOOOOOOOOOOOOOOOOO$O$OOOOOOOOOOOOO@@@@OOOOOOOOOOOOO$O$OOOOOOOOOOOOOOOOOOOOOOOOOOOOOOOOOOOOOOOOOOOOOOOOOOOOOOOOOOOOOOOOOOOOOOOOOOOOOX",
"XO#OOOOOOOOOOOOOOOOOOOOOOOOOOOOOOOOOOOOOOOOOOOOOOOOOOOOOOOOOOOOOOOOOOOO#OOOOOO$O$OOOOOOOOOOOOOO@@OOOOOOOOOOOOOO$O$OOOO#OOOOOOOOOOOOOOOOOOOOOOOOOOOOOOOOOOOOOOOOOOOOOOOOOOOOOOOOOOOOOOOOOOOOOO#OX",
"XOOOOOOOOOOOOOOOOOOOOOOOOOOOOOOOOOOOOOOOOOOOOOOOOOOOOOOOOOOOOOOOOOOOOOOOOOOOOO$O$OOOOOOOOOOOOOOOOOOOOOOOOOOOOOO$O$OOOOOOOOOOOOOOOOOOOOOOOOOOOOOOOOOOOOOOOOOOOOOOOOOOOOOOOOOOOOOOOOOOOOOOOOOOOOOX",
"XO#OOOOOOOOOOOOOOOOOOOOOOOOOOOOOOOOOOOOOOOOOOOOOOOOOOOOOOOOOOOOOOOOOOOO#OOOOOO$O$OOOOOOOOOOOOOOOOOOOOOOOOOOOOOO$O$OOOO#OOOOOOOOOOOOOOOOOOOOOOOOOOOOOOOOOOOOOOOOOOOOOOOOOOOOOOOOOOOOOOOOOOOOOO#OX",
"XOOOOOOOOOOOOOOOOOOOOOOOOOOOOOOOOOOOOOOOOOOOOOOOOOOOOOOOOOOOOOOOOOOOOOOOOOOOOO$O$OOOOOOOOOOOOOOOOOOOOOOOOOOOOOO$O$OOOOOOOOOOOOOOOOOOOOOOOOOOOOOOOOOOOOOOOOOOOOOOOOOOOOOOOOOOOOOOOOOOOOOOOOOOOOOX",
"XO#OOOOOOOOOOOOOOOOOOOOOOOOOOOOOOOOOOOOOOOOOOOOOOOOOOOOOOOOOOOOOOOOOOOO#OOOOOO$O$$$$OO$$O$$O$$$OO$O$O$$$OOOO$$$$O$OOOO#OOOOOOOOOOOOOOOOOOOOOOOOOOOOOOOOOOOOOOOOOOOOOOOOOOOOOOOOOOOOOOOOOOOOOO#OX",
"XOOOOOOOOOOOOOOOOOOOOOOOOOOOOOOOOOOOOOOOOOOOOOOOOOOOOOOOOOOOOOOOOOOOOOOOOOOOOO$OOOOOOO$O$O$O$O$OO$O$O$$OOOOOOOOOO$OOOOOOOOOOOOOOOOOOOOOOOOOOOOOOOOOOOOOOOOOOOOOOOOOOOOOOOOOOOOOOOOOOOOOOOOOOOOOX",
"XO#O##O##O##O##O##O##O##O##O##O##O##O##O##O##O##O##O##O##O##O##O##O##O##OOOOOO$$$$$$OO$OOO$O$$$OOO$OO$$$OOOO$$$$$$OOOO#OO#O##O##O##O##O##O##O##O##O##O##O##O##O##O##O##O##O##O##O##O##O##O##O#OX",
"XOOOOOOOOOOOOOOOOOOOOOOOOOOOOOOOOOOOOOOOOOOOOOOOOOOOOOOOOOOOOOOOOOOOOOOOOOOOOOOOOOOOOOOOOOOOOOOOOOOOOOOOOOOOOOOOOOOOOOOOOOOOOOOOOOOOOOOOOOOOOOOOOOOOOOOOOOOOOOOOOOOOOOOOOOOOOOOOOOOOOOOOOOOOOOOX",
"XOOOOOOOOOOOOOOOOOOOOOOOOOOOOOOOOOOOOOOOOOOOOOOOOOOOOOOOOOOOOOOOOOOOOOOOOOOOOOOOOOOOOOOOOOOOOOOOOOOOOOOOOOOOOOOOOOOOOOOOOOOOOOOOOOOOOOOOOOOOOOOOOOOOOOOOOOOOOOOOOOOOOOOOOOOOOOOOOOOOOOOOOOOOOOOX",
"XXXXXXXXXXXXXXXXXXXXXXXXXXXXXXXXXXXXXXXXXXXXXXXXXXXXXXXXXXXXXXXXXXXXXXXXXXXXXXXXXXXXXXXXXXXXXXXXXXXXXXXXXXXXXXXXXXXXXXXXXXXXXXXXXXXXXXXXXXXXXXXXXXXXXXXXXXXXXXXXXXXXXXXXXXXXXXXXXXXXXXXXXXXXXXXX"
};
